components/Common/Svg/svgs/sitemap.svg

<svg
  width="90"
  height="90"
  viewBox="0 0 90 90"
  fill="none"
  xmlns="http://www.w3.org/2000/svg"
>
  <circle
    opacity="0.5"
    cx="45"
    cy="45"
    r="45"
    fill="#FFE603"
  ></circle>
  <path
    d="M49.75 33.625V26.375C49.75 25.5742 49.1008 24.925 48.3 24.925H41.05C40.2492 24.925 39.6 25.5742 39.6 26.375V33.625C39.6 34.4259 40.2492 35.075 41.05 35.075H48.3C49.1008 35.075 49.75 34.4259 49.75 33.625Z"
    stroke="#161616"
    stroke-width="2"
    stroke-linecap="round"
    stroke-linejoin="round"
  ></path>
  <path
    d="M50.4727 59.725V51.025C50.4727 50.2241 49.8235 49.575 49.0227 49.575H40.3227C39.5218 49.575 38.8727 50.2241 38.8727 51.025V59.725C38.8727 60.5258 39.5218 61.175 40.3227 61.175H49.0227C49.8235 61.175 50.4727 60.5258 50.4727 59.725Z"
    stroke="#161616"
    stroke-width="2"
    stroke-linecap="round"
    stroke-linejoin="round"
  ></path>
  <path
    d="M67.875 59.725V51.025C67.875 50.2241 67.2258 49.575 66.425 49.575H57.725C56.9242 49.575 56.275 50.2241 56.275 51.025V59.725C56.275 60.5258 56.9242 61.175 57.725 61.175H66.425C67.2258 61.175 67.875 60.5258 67.875 59.725Z"
    stroke="#161616"
    stroke-width="2"
    stroke-linecap="round"
    stroke-linejoin="round"
  ></path>
  <path
    d="M33.0742 59.725V51.025C33.0742 50.2241 32.425 49.575 31.6242 49.575H22.9242C22.1234 49.575 21.4742 50.2241 21.4742 51.025V59.725C21.4742 60.5258 22.1234 61.175 22.9242 61.175H31.6242C32.425 61.175 33.0742 60.5258 33.0742 59.725Z"
    stroke="#161616"
    stroke-width="2"
    stroke-linecap="round"
    stroke-linejoin="round"
  ></path>
  <path
    d="M44.6719 35.075V42.325"
    stroke="#161616"
    stroke-width="2"
    stroke-linecap="round"
    stroke-linejoin="round"
  ></path>
  <path
    d="M44.6719 41.6001V48.8501"
    stroke="#161616"
    stroke-width="2"
    stroke-linecap="round"
    stroke-linejoin="round"
  ></path>
  <path
    d="M27.2742 49.575V46.675C27.2742 45.5213 27.7325 44.4148 28.5483 43.599C29.3641 42.7833 30.4705 42.325 31.6242 42.325H57.7242C58.8779 42.325 59.9844 42.7833 60.8001 43.599C61.6159 44.4148 62.0742 45.5213 62.0742 46.675V49.575"
    stroke="#161616"
    stroke-width="2"
    stroke-linecap="round"
    stroke-linejoin="round"
  ></path>
</svg>

<svg width="90" height="90" viewBox="0 0 90 90" fill="none" xmlns="http://www.w3.org/2000/svg"><circle opacity=".5" cx="45" cy="45" r="45" fill="#FFE603"/><path d="M49.75 33.625v-7.25c0-.8-.65-1.45-1.45-1.45h-7.25c-.8 0-1.45.65-1.45 1.45v7.25c0 .8.65 1.45 1.45 1.45h7.25c.8 0 1.45-.65 1.45-1.45ZM50.473 59.725v-8.7c0-.8-.65-1.45-1.45-1.45h-8.7c-.801 0-1.45.65-1.45 1.45v8.7c0 .8.649 1.45 1.45 1.45h8.7c.8 0 1.45-.65 1.45-1.45ZM67.875 59.725v-8.7c0-.8-.65-1.45-1.45-1.45h-8.7c-.8 0-1.45.65-1.45 1.45v8.7c0 .8.65 1.45 1.45 1.45h8.7c.8 0 1.45-.65 1.45-1.45ZM33.074 59.725v-8.7c0-.8-.649-1.45-1.45-1.45h-8.7c-.8 0-1.45.65-1.45 1.45v8.7c0 .8.65 1.45 1.45 1.45h8.7c.801 0 1.45-.65 1.45-1.45ZM44.672 35.075v7.25M44.672 41.6v7.25" stroke="#161616" stroke-width="2" stroke-linecap="round" stroke-linejoin="round"/><path d="M27.274 49.575v-2.9a4.35 4.35 0 0 1 4.35-4.35h26.1a4.35 4.35 0 0 1 4.35 4.35v2.9" stroke="#161616" stroke-width="2" stroke-linecap="round" stroke-linejoin="round"/></svg>
